img/icons/mime/large/mpeg.svg

<svg height="140.9" width="125.3" xmlns="http://www.w3.org/2000/svg" xmlns:xlink="http://www.w3.org/1999/xlink"><linearGradient id="a" gradientTransform="matrix(.939922 0 0 .896911 -12.081733 -3.352424)" gradientUnits="userSpaceOnUse" x1="24" x2="73" y1="16.4" y2="73.4"><stop offset="0" stop-color="#fff"/><stop offset="1" stop-color="#fff" stop-opacity="0"/></linearGradient><linearGradient id="b"><stop offset="0" stop-opacity=".4"/><stop offset="1" stop-color="#fff" stop-opacity="0"/></linearGradient><linearGradient id="c" gradientTransform="matrix(.835844 0 0 1.105209 -13.260898 -7.925206)" gradientUnits="userSpaceOnUse" x1="160.6" x2="124" xlink:href="#b" y1="56.2" y2="56.2"/><linearGradient id="d" gradientTransform="matrix(1.11917 0 0 .825418 -13.260898 -7.925206)" gradientUnits="userSpaceOnUse" x1="86.6" x2="40.3" xlink:href="#b" y1="76.5" y2="76.4"/><linearGradient id="e" gradientTransform="matrix(.632812 0 0 1.182913 -5.349646 -7.925206)" gradientUnits="userSpaceOnUse" x1="52.9" x2="17.1" xlink:href="#b" y1="53" y2="53"/><rect fill="none" height="133.4" rx="22.9" stroke="#000" stroke-linejoin="round" stroke-opacity=".5" stroke-width="7.5" width="117.8" x="3.8" y="3.8"/><rect fill="#83a67f" height="133.4" rx="22.9" stroke="#000" stroke-width="3.8" width="117.8" x="3.6" y="3.7"/><path d="m24.6 7.3h75.7c11.7 0 17.4 5.7 17.4 17.4 0 0-79.3.9-110.4 91.3v-91.3c0-10.3 7-17.4 17.3-17.4z" fill="url(#a)"/><path d="m100.3 132.6h-75.7c-11.6 0-17.3-5.7-17.3-17.4 0 0 27.6-66.5 110.4-76.6v76.6c0 11.7-5.7 17.4-17.4 17.4z" fill="#fff" fill-opacity=".3"/><path d="m94.4 124.7c-4 0-7.1-1.3-9.3-3.9-2.1-2.5-3.2-6.2-3.2-11 0-4.9 1.1-8.6 3.2-11.1 2.2-2.5 5.3-3.8 9.3-3.8h16.1v5.1h-14.2c-2.4 0-4.2.8-5.5 2.5-1.2 1.6-1.8 4-1.8 7.3 0 3.2.6 5.7 1.7 7.3 1.2 1.7 3 2.5 5.6 2.5h7.8v-7.4h-8.4v-4.9h14.8v17.4zm-35.9-10.7v10.7h-6.5v-29.8h17.9c2.8 0 4.9.8 6.5 2.4 1.7 1.6 2.5 4 2.5 7.2 0 3.1-.8 5.4-2.5 7.1-1.6 1.6-3.7 2.4-6.5 2.4zm0-14v8.9h8.5c1.4 0 2.5-.3 3.4-1 .9-.8 1.4-1.9 1.4-3.4s-.5-2.7-1.4-3.4c-.8-.7-2-1.1-3.4-1.1zm-39.4 24.7h-6.4v-29.8h9.5l7.8 23 7.9-23h9.6v29.8h-6.4v-22.3h-.2l-7.7 22.3h-6.2l-7.7-22.3h-.2z" fill="#fff"/><path d="m95.1 125.3c-4 0-7.1-1.2-9.3-3.8-2.1-2.6-3.2-6.3-3.2-11 0-4.9 1.1-8.6 3.2-11.1 2.1-2.6 5.2-3.8 9.3-3.8h16v5.1h-14.1c-2.4 0-4.3.8-5.5 2.4-1.2 1.7-1.8 4.1-1.8 7.4 0 3.2.5 5.7 1.7 7.3 1.1 1.6 3 2.4 5.6 2.4h7.8v-7.3h-8.4v-4.9h14.7v17.3zm-36-10.6v10.6h-6.4v-29.7h17.9c2.7 0 4.9.8 6.5 2.4s2.4 4 2.4 7.1-.8 5.5-2.4 7.1c-1.6 1.7-3.8 2.5-6.5 2.5zm0-14v8.9h8.6c1.4 0 2.5-.3 3.4-1.1.9-.7 1.4-1.8 1.4-3.4 0-1.5-.5-2.6-1.4-3.3s-2-1.1-3.4-1.1zm-39.3 24.6h-6.5v-29.7h9.6l7.8 23 7.9-23h9.6v29.7h-6.4v-22.2h-.2l-7.7 22.2h-6.2l-7.8-22.2h-.1z"/><g stroke="#000"><path d="m5.1 75.4h114v13.1h-114z" fill="#6e6d6e" stroke-width="2"/><path d="m5.1 19.7h114v13.1h-114z" fill="#6d6d6d" stroke-width="2"/><path d="m5.5 32.8h22.7v42.6h-22.7z" fill="url(#e)" stroke-width=".5"/><path d="m30.3 32.8h58.1v42.6h-58.1z" fill="url(#d)" stroke-width=".5"/><path d="m90.7 32.8h32.1v42.6h-32.1z" fill="url(#c)" stroke-width=".6"/><path d="m9.4 23h8.6v6.6h-8.6z" fill="#fff" stroke-width=".5"/><path d="m22.4 23h8.6v6.6h-8.6z" fill="#fff" stroke-width=".5"/><path d="m35.3 23h8.6v6.6h-8.6z" fill="#fff" stroke-width=".5"/><path d="m48.2 23h8.6v6.6h-8.6z" fill="#fff" stroke-width=".5"/><path d="m61.1 23h8.6v6.6h-8.6z" fill="#fff" stroke-width=".5"/><path d="m74 23h8.6v6.6h-8.6z" fill="#fff" stroke-width=".5"/><path d="m86.9 23h8.6v6.6h-8.6z" fill="#fff" stroke-width=".5"/><path d="m99.8 23h8.6v6.6h-8.6z" fill="#fff" stroke-width=".5"/><path d="m112.6 23h5.9v6.6h-5.9z" fill="#fff" stroke-width=".4"/><path d="m9.8 79h8.6v6.6h-8.6z" fill="#fff" stroke-width=".5"/><path d="m22.7 79h8.6v6.6h-8.6z" fill="#fff" stroke-width=".5"/><path d="m35.6 79h8.6v6.6h-8.6z" fill="#fff" stroke-width=".5"/><path d="m48.5 79h8.6v6.6h-8.6z" fill="#fff" stroke-width=".5"/><path d="m61.4 79h8.6v6.6h-8.6z" fill="#fff" stroke-width=".5"/><path d="m74.3 79h8.6v6.6h-8.6z" fill="#fff" stroke-width=".5"/><path d="m87.2 79h8.6v6.6h-8.6z" fill="#fff" stroke-width=".5"/><path d="m100.1 79h8.6v6.6h-8.6z" fill="#fff" stroke-width=".5"/><path d="m112.9 79h5.4v6.6h-5.4z" fill="#fff" stroke-width=".4"/></g></svg>

<svg xmlns:svg="http://www.w3.org/2000/svg" xmlns="http://www.w3.org/2000/svg" xmlns:xlink="http://www.w3.org/1999/xlink" id="svg1" width="125.3" height="140.9" version="1">
<style>
.s0{
  stop-color:#ffffff;
  stop-opacity:0;
}
.s1{
  stop-color:#46a046;
  stop-opacity:1;
}
.s2{
  stop-color:#df421e;
  stop-opacity:1;
}
.s3{
  stop-color:#ada7c8;
  stop-opacity:1;
}
.s4{
  stop-color:#eed680;
  stop-opacity:1;
}
.s5{
  fill:#fff;
  stroke-width:0.5;
  stroke:#000;
}
.s6{
  fill:#fff;
  stroke-width:0.4;
  stroke:#000;
}

</style>  <metadata id="metadata15"/>
  <defs id="defs3">
    <linearGradient id="linearGradient3587">
      <stop id="stop3589" offset="0" style="stop-color:#efe0cd;stop-opacity:0.6"/>
      <stop id="stop3591" offset="1" style="stop-color:#cececd;stop-opacity:0.2"/>
    </linearGradient>
    <linearGradient id="linearGradient2832">
      <stop offset="0" id="stop2834" style="stop-color:#ffffff;stop-opacity:1"/>
      <stop offset="1" id="stop2836" class="s0"/>
    </linearGradient>
    <linearGradient id="linearGradient839">
      <stop offset="0" id="stop840" class="s1"/>
      <stop offset="0.4" id="stop841" class="s2"/>
      <stop offset="0.7" id="stop842" class="s3"/>
      <stop offset="1" id="stop843" class="s4"/>
    </linearGradient>
    <linearGradient xlink:href="#linearGradient839" id="linearGradient836" x1="0" y1="0.5" x2="1" y2="0.5"/>
    <linearGradient xlink:href="#linearGradient2832" id="linearGradient2830" gradientTransform="matrix(0.939922,0,0,0.896911,-12.081733,-3.3524237)" x1="24" y1="16.4" x2="73" y2="73.4" gradientUnits="userSpaceOnUse"/>
    <linearGradient y2="93.7" x2="107.3" y1="124.3" x1="111.3" gradientTransform="matrix(0.777129,0,0,0.894628,-162.4688,12.76856)" gradientUnits="userSpaceOnUse" id="linearGradient1407" xlink:href="#linearGradient1700"/>
    <linearGradient y2="93.7" x2="107.3" y1="124.3" x1="111.3" gradientTransform="matrix(0.777129,0,0,0.894628,-2.922179,10.43077)" gradientUnits="userSpaceOnUse" id="linearGradient1390" xlink:href="#linearGradient1700"/>
    <linearGradient id="linearGradient1350">
      <stop offset="0" id="stop1352" class="s1"/>
      <stop offset="0.4" id="stop1354" class="s2"/>
      <stop offset="0.7" id="stop1356" class="s3"/>
      <stop offset="1" id="stop1358" class="s4"/>
    </linearGradient>
    <linearGradient xlink:href="#linearGradient839" id="linearGradient1360" x1="0" y1="0.5" x2="1" y2="0.5"/>
    <linearGradient xlink:href="#linearGradient1700" id="linearGradient1362" gradientTransform="matrix(0.870364,0,0,1.001961,4.612015,4.886798)" x1="123.5" y1="121.7" x2="128.7" y2="88" gradientUnits="userSpaceOnUse"/>
    <linearGradient xlink:href="#linearGradient839" id="linearGradient1363" x1="0" y1="0.5" x2="1" y2="0.5"/>
    <linearGradient id="linearGradient1353">
      <stop offset="0" id="stop1355" class="s1"/>
      <stop offset="0.4" id="stop1357" class="s2"/>
      <stop offset="0.7" id="stop1359" class="s3"/>
      <stop offset="1" id="stop1361" class="s4"/>
    </linearGradient>
    <linearGradient id="linearGradient1700">
      <stop offset="0" id="stop1701" style="stop-color:#000000;stop-opacity:0.7"/>
      <stop offset="1" id="stop1702" style="stop-color:#000000;stop-opacity:0"/>
    </linearGradient>
    <linearGradient y2="0.5" x2="1" y1="0.5" x1="0" id="linearGradient1427" xlink:href="#linearGradient839"/>
    <linearGradient id="linearGradient1417">
      <stop id="stop1419" offset="0" class="s1"/>
      <stop id="stop1421" offset="0.4" class="s2"/>
      <stop id="stop1423" offset="0.7" class="s3"/>
      <stop id="stop1425" offset="1" class="s4"/>
    </linearGradient>
    <linearGradient xlink:href="#linearGradient839" id="linearGradient1384" x1="0" y1="0.5" x2="1" y2="0.5"/>
    <linearGradient id="linearGradient1374">
      <stop offset="0" id="stop1376" class="s1"/>
      <stop offset="0.4" id="stop1378" class="s2"/>
      <stop offset="0.7" id="stop1380" class="s3"/>
      <stop offset="1" id="stop1382" class="s4"/>
    </linearGradient>
    <linearGradient xlink:href="#linearGradient839" id="linearGradient2205" x1="0" y1="0.5" x2="1" y2="0.5"/>
    <linearGradient id="linearGradient2195">
      <stop offset="0" id="stop2197" class="s1"/>
      <stop offset="0.4" id="stop2199" class="s2"/>
      <stop offset="0.7" id="stop2201" class="s3"/>
      <stop offset="1" id="stop2203" class="s4"/>
    </linearGradient>
    <linearGradient xlink:href="#linearGradient839" id="linearGradient3025" x1="0" y1="0.5" x2="1" y2="0.5"/>
    <linearGradient id="linearGradient3015">
      <stop offset="0" id="stop3017" class="s1"/>
      <stop offset="0.4" id="stop3019" class="s2"/>
      <stop offset="0.7" id="stop3021" class="s3"/>
      <stop offset="1" id="stop3023" class="s4"/>
    </linearGradient>
    <linearGradient xlink:href="#linearGradient839" id="linearGradient3845" x1="0" y1="0.5" x2="1" y2="0.5"/>
    <linearGradient id="linearGradient3835">
      <stop offset="0" id="stop3837" class="s1"/>
      <stop offset="0.4" id="stop3839" class="s2"/>
      <stop offset="0.7" id="stop3841" class="s3"/>
      <stop offset="1" id="stop3843" class="s4"/>
    </linearGradient>
    <linearGradient xlink:href="#linearGradient839" id="linearGradient4665" x1="0" y1="0.5" x2="1" y2="0.5"/>
    <linearGradient id="linearGradient4655">
      <stop offset="0" id="stop4657" class="s1"/>
      <stop offset="0.4" id="stop4659" class="s2"/>
      <stop offset="0.7" id="stop4661" class="s3"/>
      <stop offset="1" id="stop4663" class="s4"/>
    </linearGradient>
    <linearGradient xlink:href="#linearGradient839" id="linearGradient5485" x1="0" y1="0.5" x2="1" y2="0.5"/>
    <linearGradient id="linearGradient5475">
      <stop offset="0" id="stop5477" class="s1"/>
      <stop offset="0.4" id="stop5479" class="s2"/>
      <stop offset="0.7" id="stop5481" class="s3"/>
      <stop offset="1" id="stop5483" class="s4"/>
    </linearGradient>
    <linearGradient xlink:href="#linearGradient839" id="linearGradient6305" x1="0" y1="0.5" x2="1" y2="0.5"/>
    <linearGradient id="linearGradient6295">
      <stop offset="0" id="stop6297" class="s1"/>
      <stop offset="0.4" id="stop6299" class="s2"/>
      <stop offset="0.7" id="stop6301" class="s3"/>
      <stop offset="1" id="stop6303" class="s4"/>
    </linearGradient>
    <linearGradient xlink:href="#linearGradient839" id="linearGradient7125" x1="0" y1="0.5" x2="1" y2="0.5"/>
    <linearGradient id="linearGradient7115">
      <stop offset="0" id="stop7117" class="s1"/>
      <stop offset="0.4" id="stop7119" class="s2"/>
      <stop offset="0.7" id="stop7121" class="s3"/>
      <stop offset="1" id="stop7123" class="s4"/>
    </linearGradient>
    <linearGradient y2="0.5" x2="1" y1="0.5" x1="0" id="linearGradient1432" xlink:href="#linearGradient839"/>
    <linearGradient id="linearGradient1422">
      <stop id="stop1424" offset="0" class="s1"/>
      <stop id="stop1426" offset="0.4" class="s2"/>
      <stop id="stop1428" offset="0.7" class="s3"/>
      <stop id="stop1430" offset="1" class="s4"/>
    </linearGradient>
    <linearGradient y2="0.5" x2="1" y1="0.5" x1="0" id="linearGradient2255" xlink:href="#linearGradient839"/>
    <linearGradient id="linearGradient2245">
      <stop id="stop2247" offset="0" class="s1"/>
      <stop id="stop2249" offset="0.4" class="s2"/>
      <stop id="stop2251" offset="0.7" class="s3"/>
      <stop id="stop2253" offset="1" class="s4"/>
    </linearGradient>
    <linearGradient y2="0.5" x2="1" y1="0.5" x1="0" id="linearGradient3075" xlink:href="#linearGradient839"/>
    <linearGradient id="linearGradient3065">
      <stop id="stop3067" offset="0" class="s1"/>
      <stop id="stop3069" offset="0.4" class="s2"/>
      <stop id="stop3071" offset="0.7" class="s3"/>
      <stop id="stop3073" offset="1" class="s4"/>
    </linearGradient>
    <linearGradient xlink:href="#linearGradient850" id="linearGradient853" x1="52.9" y1="53" x2="17.1" y2="53" gradientTransform="scale(0.84537,1.182913)" gradientUnits="userSpaceOnUse"/>
    <linearGradient xlink:href="#linearGradient850" id="linearGradient855" x1="86.6" y1="76.5" x2="40.3" y2="76.4" gradientTransform="scale(1.211508,0.825418)" gradientUnits="userSpaceOnUse"/>
    <linearGradient xlink:href="#linearGradient839" id="linearGradient1489" x1="0" y1="0.5" x2="1" y2="0.5"/>
    <linearGradient id="linearGradient833">
      <stop offset="0" id="stop834" style="stop-color:#00ff00;stop-opacity:1"/>
      <stop offset="0.3" id="stop837" style="stop-color:#ff0000;stop-opacity:1"/>
      <stop offset="0.8" id="stop838" style="stop-color:#7f8cff;stop-opacity:1"/>
      <stop offset="1" id="stop835" style="stop-color:#ffff00;stop-opacity:1"/>
    </linearGradient>
    <linearGradient id="linearGradient1474">
      <stop offset="0" id="stop1476" class="s1"/>
      <stop offset="0.4" id="stop1478" class="s2"/>
      <stop offset="0.7" id="stop1480" class="s3"/>
      <stop offset="1" id="stop1482" class="s4"/>
    </linearGradient>
    <linearGradient xlink:href="#linearGradient850" id="linearGradient859" x1="160.6" y1="56.2" x2="124" y2="56.2" gradientTransform="scale(0.904806,1.105209)" gradientUnits="userSpaceOnUse"/>
    <linearGradient id="linearGradient850">
      <stop offset="0" id="stop851" style="stop-color:#000000;stop-opacity:0.4"/>
      <stop offset="1" id="stop852" class="s0"/>
    </linearGradient>
    <linearGradient xlink:href="#linearGradient850" id="linearGradient1543" gradientUnits="userSpaceOnUse" gradientTransform="matrix(0.835844,0,0,1.105209,-13.260898,-7.9252057)" x1="160.6" y1="56.2" x2="124" y2="56.2"/>
    <linearGradient xlink:href="#linearGradient850" id="linearGradient1546" gradientUnits="userSpaceOnUse" gradientTransform="matrix(1.11917,0,0,0.825418,-13.260898,-7.9252057)" x1="86.6" y1="76.5" x2="40.3" y2="76.4"/>
    <linearGradient xlink:href="#linearGradient850" id="linearGradient1549" gradientUnits="userSpaceOnUse" gradientTransform="matrix(0.632812,0,0,1.182913,-5.3496464,-7.9252057)" x1="52.9" y1="53" x2="17.1" y2="53"/>
  </defs>
  <rect id="rect834" width="117.8" height="133.4" x="3.8" y="3.8" ry="22.9" rx="22.9" style="fill:none;stroke-linejoin:round;stroke-opacity:0.5;stroke-width:7.5;stroke:#000"/>
  <rect id="rect828" width="117.8" height="133.4" x="3.6" y="3.7" ry="22.9" rx="22.9" style="fill:#83a67f;stroke-width:3.8;stroke:#000"/>
  <path d="M24.6 7.3L100.3 7.3C112 7.3 117.7 13 117.7 24.7 117.7 24.7 38.4 25.6 7.3 116L7.3 24.7C7.3 14.4 14.3 7.3 24.6 7.3z" id="rect2063" fill="url(#linearGradient2830)"/>
  <path d="M100.3 132.6L24.6 132.6C13 132.6 7.3 126.9 7.3 115.2 7.3 115.2 34.9 48.7 117.7 38.6L117.7 115.2C117.7 126.9 112 132.6 100.3 132.6z" id="path2838" style="fill-opacity:0.3;fill:#fff"/>
  <path d="M94.4 124.7C90.4 124.7 87.3 123.4 85.1 120.8 83 118.3 81.9 114.6 81.9 109.8 81.9 104.9 83 101.2 85.1 98.7 87.3 96.2 90.4 94.9 94.4 94.9L110.5 94.9 110.5 100 96.3 100C93.9 100 92.1 100.8 90.8 102.5 89.6 104.1 89 106.5 89 109.8 89 113 89.6 115.5 90.7 117.1 91.9 118.8 93.7 119.6 96.3 119.6L104.1 119.6 104.1 112.2 95.7 112.2 95.7 107.3 110.5 107.3 110.5 124.7 94.4 124.7zM58.5 114L58.5 124.7 52 124.7 52 94.9 69.9 94.9C72.7 94.9 74.8 95.7 76.4 97.3 78.1 98.9 78.9 101.3 78.9 104.5 78.9 107.6 78.1 109.9 76.4 111.6 74.8 113.2 72.7 114 69.9 114L58.5 114zM58.5 100L58.5 108.9 67 108.9C68.4 108.9 69.5 108.6 70.4 107.9 71.3 107.1 71.8 106 71.8 104.5 71.8 103 71.3 101.8 70.4 101.1 69.6 100.4 68.4 100 67 100L58.5 100zM19.1 124.7L12.7 124.7 12.7 94.9 22.2 94.9 30 117.9 37.9 94.9 47.5 94.9 47.5 124.7 41.1 124.7 41.1 102.4 40.9 102.4 33.2 124.7 27 124.7 19.3 102.4 19.1 102.4 19.1 124.7z" id="path1555" style="fill:#fff;font-family:Trek;font-size:40;stroke-width:1"/>
  <path d="M95.1 125.3C91.1 125.3 88 124.1 85.8 121.5 83.7 118.9 82.6 115.2 82.6 110.5 82.6 105.6 83.7 101.9 85.8 99.4 87.9 96.8 91 95.6 95.1 95.6L111.1 95.6 111.1 100.7 97 100.7C94.6 100.7 92.7 101.5 91.5 103.1 90.3 104.8 89.7 107.2 89.7 110.5 89.7 113.7 90.2 116.2 91.4 117.8 92.5 119.4 94.4 120.2 97 120.2L104.8 120.2 104.8 112.9 96.4 112.9 96.4 108 111.1 108 111.1 125.3 95.1 125.3zM59.1 114.7L59.1 125.3 52.7 125.3 52.7 95.6 70.6 95.6C73.3 95.6 75.5 96.4 77.1 98 78.7 99.6 79.5 102 79.5 105.1 79.5 108.2 78.7 110.6 77.1 112.2 75.5 113.9 73.3 114.7 70.6 114.7L59.1 114.7zM59.1 100.7L59.1 109.6 67.7 109.6C69.1 109.6 70.2 109.3 71.1 108.5 72 107.8 72.5 106.7 72.5 105.1 72.5 103.6 72 102.5 71.1 101.8 70.2 101.1 69.1 100.7 67.7 100.7L59.1 100.7zM19.8 125.3L13.3 125.3 13.3 95.6 22.9 95.6 30.7 118.6 38.6 95.6 48.2 95.6 48.2 125.3 41.8 125.3 41.8 103.1 41.6 103.1 33.9 125.3 27.7 125.3 19.9 103.1 19.8 103.1 19.8 125.3z" id="path869" style="font-family:Trek;font-size:40;stroke-width:1"/>
  <rect id="rect858" width="114" height="13.1" x="5.1" y="75.4" style="fill:#6e6d6e;stroke-width:2;stroke:#000"/>
  <rect id="rect857" width="114" height="13.1" x="5.1" y="19.7" style="fill:#6d6d6d;stroke-width:2;stroke:#000"/>
  <rect id="rect826" width="22.7" height="42.6" x="5.5" y="32.8" style="fill:url(#linearGradient1549);stroke-width:0.5;stroke:#000"/>
  <rect id="rect827" width="58.1" height="42.6" x="30.3" y="32.8" style="fill:url(#linearGradient1546);stroke-width:0.5;stroke:#000"/>
  <rect id="rect880" width="32.1" height="42.6" x="90.7" y="32.8" style="fill:url(#linearGradient1543);stroke-width:0.6;stroke:#000"/>
  <rect id="rect829" width="8.6" height="6.6" x="9.4" y="23" class="s5"/>
  <rect id="rect830" width="8.6" height="6.6" x="22.4" y="23" class="s5"/>
  <rect id="rect831" width="8.6" height="6.6" x="35.3" y="23" class="s5"/>
  <rect id="rect832" width="8.6" height="6.6" x="48.2" y="23" class="s5"/>
  <rect id="rect833" width="8.6" height="6.6" x="61.1" y="23" class="s5"/>
  <rect id="rect1508" width="8.6" height="6.6" x="74" y="23" class="s5"/>
  <rect id="rect835" width="8.6" height="6.6" x="86.9" y="23" class="s5"/>
  <rect id="rect836" width="8.6" height="6.6" x="99.8" y="23" class="s5"/>
  <rect id="rect837" width="5.9" height="6.6" x="112.6" y="23" class="s6"/>
  <rect id="rect838" width="8.6" height="6.6" x="9.8" y="79" class="s5"/>
  <rect id="rect839" width="8.6" height="6.6" x="22.7" y="79" class="s5"/>
  <rect id="rect840" width="8.6" height="6.6" x="35.6" y="79" class="s5"/>
  <rect id="rect841" width="8.6" height="6.6" x="48.5" y="79" class="s5"/>
  <rect id="rect842" width="8.6" height="6.6" x="61.4" y="79" class="s5"/>
  <rect id="rect843" width="8.6" height="6.6" x="74.3" y="79" class="s5"/>
  <rect id="rect844" width="8.6" height="6.6" x="87.2" y="79" class="s5"/>
  <rect id="rect845" width="8.6" height="6.6" x="100.1" y="79" class="s5"/>
  <rect id="rect846" width="5.4" height="6.6" x="112.9" y="79" class="s6"/>
</svg>
